svgs/sharp-light/chart-pie-simple.svg

<svg xmlns="http://www.w3.org/2000/svg" viewBox="0 0 512 512"><!--! Font Awesome Pro 6.6.0 by @fontawesome - https://fontawesome.com License - https://fontawesome.com/license (Commercial License) Copyright 2024 Fonticons, Inc. --><path d="M288 32.5C390.4 39.8 472.2 121.6 479.5 224L288 224l0-191.5zM273.1 0c-5.7 0-11.4 .2-17.1 .6L256 224l0 32 32 0 223.4 0c.4-5.6 .6-11.3 .6-17.1C512 107 405 0 273.1 0zM192 288l0 32 32 0 218.4 0C420.8 411.7 338.4 480 240 480C125.1 480 32 386.9 32 272c0-98.4 68.3-180.8 160-202.4L192 288zm287.5 0l-32.1 0L256 288l-32 0 0-32 0-191.4 0-32.1c-10.9 .7-21.6 2.2-32 4.3C82.5 59 0 155.9 0 272C0 404.6 107.5 512 240 512c116.1 0 213-82.5 235.2-192c2.1-10.4 3.6-21.1 4.3-32z"/></svg>

<svg xmlns="http://www.w3.org/2000/svg" viewBox="0 0 512 512"><!--! Font Awesome Pro 6.4.0 by @fontawesome - https://fontawesome.com License - https://fontawesome.com/license (Commercial License) Copyright 2023 Fonticons, Inc. --><path d="M288 32.5C390.4 39.8 472.2 121.6 479.5 224H288V32.5zM273.1 0c-5.7 0-11.4 .2-17.1 .6V224v32h32H511.4c.4-5.6 .6-11.3 .6-17.1C512 107 405 0 273.1 0zM192 288v32h32H442.4C420.8 411.7 338.4 480 240 480C125.1 480 32 386.9 32 272c0-98.4 68.3-180.8 160-202.4V288zm287.5 0H447.4 256 224V256 64.6 32.5c-10.9 .7-21.6 2.2-32 4.3C82.5 59 0 155.9 0 272C0 404.5 107.5 512 240 512c116.1 0 213-82.5 235.2-192c2.1-10.4 3.6-21.1 4.3-32z"/></svg>
